packages/vitzik-app/public/img/svg/instruments/instrument_Honky-tonk Keyboard.svg

<?xml version="1.0" encoding="utf-8"?>
<!-- Generator: Adobe Illustrator 25.0.0, SVG Export Plug-In . SVG Version: 6.00 Build 0)  -->
<svg version="1.1" xmlns="http://www.w3.org/2000/svg" xmlns:xlink="http://www.w3.org/1999/xlink" x="0px" y="0px"
	 viewBox="0 0 48 48" style="enable-background:new 0 0 48 48;" xml:space="preserve">
<style type="text/css">
	.st0{fill:#F5DAA7;}
	.st1{fill:#EDC472;}
	.st2{fill:#BC9B5B;}
	.st3{fill:#9A6A53;}
	.st4{fill:#855B47;}
	.st5{fill:#F4E2C1;}
	.st6{fill:#F7F7F7;}
	.st7{fill:#C8C3CA;}
	.st8{fill:#B78C7A;}
	.st9{fill:#7A5341;}
	.st10{fill:#704C3B;}
	.st11{fill:#CF9875;}
	.st12{fill:#C7865B;}
	.st13{clip-path:url(#SVGID_3_);}
	.st14{clip-path:url(#SVGID_4_);fill:#FFFFFF;stroke:#231F20;stroke-miterlimit:10;}
	.st15{fill:#FFFFFF;stroke:#231F20;stroke-miterlimit:10;}
	.st16{fill:none;stroke:#000000;stroke-width:4.5;stroke-miterlimit:10;}
	.st17{fill:#463C4B;}
	.st18{fill:#555A6E;}
	.st19{fill:#F06423;}
	.st20{fill:#FAA51E;}
	.st21{fill:#D7E6F0;}
	.st22{fill:#DADADA;}
	.st23{fill:#C4C6C6;}
	.st24{fill:#EDEEEF;}
	.st25{fill:#797981;}
	.st26{fill:#5A5A63;}
	.st27{fill:#494951;}
	.st28{fill:#29BAED;}
	.st29{fill:#DD9554;}
	.st30{fill:#CC8244;}
	.st31{fill:#805333;}
	.st32{fill:#A56A43;}
	.st33{fill:#CB8252;}
	.st34{fill:#ECF0F1;}
	.st35{fill:#603E26;}
	.st36{fill:#F9EAB0;}
	.st37{fill:#F5EFCA;}
	.st38{fill:#464F5D;}
	.st39{fill:#F3D55B;}
	.st40{fill:#6F6571;}
	.st41{fill:#4B3F4E;}
	.st42{fill:#5D5360;}
	.st43{fill:#857E87;}
	.st44{fill:#ECEAEC;}
	.st45{fill:#DAD8DB;}
	.st46{fill:#B3E59F;}
	.st47{fill:#CCF49F;}
	.st48{fill:#792A47;}
	.st49{fill:#A62B38;}
	.st50{fill:#D22D28;}
	.st51{fill:#FF2F19;}
	.st52{fill:#FFFFFF;}
	.st53{fill:#202666;}
	.st54{fill:#FDE6BB;}
	.st55{fill:#FE501F;}
	.st56{fill:#FD7226;}
	.st57{fill:#FCCD76;}
	.st58{fill:#FB932C;}
	.st59{fill:#4D2857;}
	.st60{fill:#B19046;}
	.st61{fill:#F0C419;}
	.st62{fill:#24AE5F;}
	.st63{fill:#E64C3C;}
	.st64{fill:#3B97D3;}
	.st65{fill:#E74444;}
	.st66{fill:#CE3536;}
	.st67{fill:#D9DBDD;}
	.st68{fill:#E8EDF1;}
	.st69{fill:#F3DB70;}
	.st70{fill:#D5DAF3;}
	.st71{fill:#A2AEE6;}
	.st72{fill:#FFC344;}
	.st73{fill:#FFE177;}
	.st74{fill:#BEC6ED;}
	.st75{fill:#8795DE;}
	.st76{fill-rule:evenodd;clip-rule:evenodd;fill:#A46A5A;}
	.st77{fill-rule:evenodd;clip-rule:evenodd;fill:#845252;}
	.st78{fill-rule:evenodd;clip-rule:evenodd;fill:#FFD05B;}
	.st79{fill-rule:evenodd;clip-rule:evenodd;fill:#704242;}
	.st80{fill-rule:evenodd;clip-rule:evenodd;fill:#FFC244;}
	.st81{fill-rule:evenodd;clip-rule:evenodd;fill:#596C76;}
	.st82{fill-rule:evenodd;clip-rule:evenodd;fill:#465A61;}
	.st83{fill:#A46A5A;}
	.st84{fill:#607D8B;}
	.st85{fill:#9C27B0;}
	.st86{fill:#03A9F4;}
	.st87{fill:#8BC34A;}
	.st88{fill:#FFC107;}
	.st89{fill:#FF9800;}
	.st90{fill:#F44336;}
	.st91{fill:#D7CCC8;}
	.st92{fill:#F57C00;}
	.st93{fill:#F9BB4B;}
	.st94{fill:#FCF05A;}
	.st95{fill:#66342E;}
	.st96{fill:#D3843D;}
	.st97{fill:#704C55;}
	.st98{fill:#5A344B;}
	.st99{fill:#E63950;}
	.st100{fill:#EFE2DD;}
	.st101{fill:#FF435B;}
	.st102{fill:#FFF5F5;}
	.st103{fill:#9B786F;}
	.st104{fill:#925CB4;}
	.st105{fill:#814BA2;}
	.st106{fill:#6F3F8A;}
	.st107{fill:#FFD185;}
	.st108{fill:#FFBA48;}
	.st109{fill:#FF5A35;}
	.st110{fill:#FF7A3C;}
	.st111{fill:#FFE8C2;}
	.st112{fill:#4F4F4F;}
	.st113{fill:#FF3A2F;}
	.st114{fill:#353535;}
	.st115{fill:#FB4A59;}
	.st116{fill:#F82F40;}
	.st117{fill:#3F5959;}
	.st118{fill:#384848;}
	.st119{fill:#EFF5F6;}
	.st120{fill:#CBE5E7;}
	.st121{fill:#FCC16D;}
	.st122{fill:#FCB44D;}
	.st123{fill:#A66856;}
	.st124{fill:#735458;}
	.st125{fill:#FFDEA9;}
	.st126{fill:#5C4346;}
	.st127{fill:#8F5040;}
	.st128{fill:#595959;}
	.st129{fill:#7F221C;}
	.st130{fill:#913122;}
	.st131{fill:#FFEFB0;}
	.st132{fill:#DB2116;}
	.st133{fill:#883F2E;}
	.st134{fill:#A44F3E;}
	.st135{fill:#D8AA5E;}
	.st136{fill:#E9B665;}
	.st137{fill:#E19974;}
	.st138{fill:#FFEFD2;}
	.st139{fill:#D7D0D6;}
	.st140{fill:#E8AD8C;}
	.st141{fill:#6D3326;}
	.st142{fill:#BA5D4F;}
	.st143{fill:#F5A871;}
	.st144{fill:#E89A5E;}
	.st145{fill:#A34F41;}
	.st146{fill:#D68A5A;}
	.st147{fill:#FFE5C4;}
	.st148{fill:#FDD1A7;}
	.st149{fill:#873F30;}
	.st150{fill:#C86F5C;}
	.st151{fill:#6C3328;}
	.st152{fill:#54231D;}
	.st153{fill:#B5B1B3;}
	.st154{fill:#FEC93E;}
	.st155{fill:#EFB533;}
	.st156{fill:#F7A738;}
	.st157{fill:#EA952F;}
	.st158{fill:#FD6E2E;}
	.st159{fill:#EA551B;}
	.st160{fill:#F5A257;}
	.st161{fill:#DB8F52;}
	.st162{fill:#75360D;}
	.st163{fill:#FFBF7B;}
	.st164{fill:#00CCB2;}
	.st165{fill:#00AB94;}
	.st166{fill:#FEA832;}
	.st167{fill:#FF8700;}
	.st168{fill:#00EED0;}
	.st169{fill:#FFD400;}
	.st170{fill:#FDBF00;}
	.st171{fill:#08B865;}
	.st172{fill:#E41F2D;}
	.st173{fill:#FD4755;}
	.st174{fill:#FB2B3A;}
	.st175{fill:#FED2A4;}
	.st176{fill:#FFE5C2;}
	.st177{fill:#FFBD86;}
	.st178{fill:#FE99A0;}
	.st179{fill:#FD8087;}
	.st180{fill:#C57A44;}
	.st181{fill:#09A755;}
	.st182{fill:#FEDF30;}
	.st183{fill:#FED402;}
	.st184{fill:#FAC600;}
	.st185{fill:#46CC8D;}
	.st186{fill:#00C27A;}
	.st187{fill:#FE7701;}
	.st188{fill:#FE860A;}
	.st189{fill:#C41926;}
	.st190{fill:#E89C5D;}
	.st191{fill:#F4B37D;}
	.st192{fill:#E8626C;}
	.st193{fill:#40C6C2;}
	.st194{fill:#FFC999;}
	.st195{fill:#4A4A68;}
	.st196{fill:#333356;}
	.st197{fill:#EDEDED;}
	.st198{fill:#C9C9C9;}
	.st199{fill:#FF9900;}
	.st200{fill:#FFCE00;}
	.st201{fill:#FBBD00;}
	.st202{fill:#ED8100;}
	.st203{fill:#FFE431;}
	.st204{fill:#FF9F00;}
	.st205{fill:#FFE666;}
	.st206{fill:#FFBF00;}
	.st207{fill:#FCCD31;}
	.st208{fill:#F2B016;}
	.st209{fill:#4A4D4F;}
	.st210{fill:#D3CBC2;}
	.st211{fill:#6D7072;}
	.st212{fill:#BAAFA6;}
	.st213{fill:#888C8E;}
	.st214{fill:#B4B4B4;}
	.st215{fill:#FFE999;}
	.st216{fill:#FFCF3B;}
	.st217{fill:#C1C1C1;}
	.st218{fill:#FFBC19;}
	.st219{fill:#94E6FF;}
	.st220{fill:#315F83;}
	.st221{fill:#267EA8;}
	.st222{fill:#3B3F5F;}
	.st223{fill:#D8F2FB;}
	.st224{fill:#35495E;}
	.st225{fill:#556080;}
	.st226{fill:#E4C05C;}
	.st227{fill:#E4C05C;stroke:#E4C05C;stroke-width:2;stroke-linecap:round;stroke-linejoin:round;stroke-miterlimit:10;}
	.st228{fill:#B57F5F;}
	.st229{fill:#966A5B;}
	.st230{fill:#FFD15B;}
	.st231{fill:#A5C3DC;}
	.st232{fill:#8697CB;}
	.st233{fill:#E0E0E0;}
	.st234{fill:#CCCCCC;}
	.st235{fill:#8E8E8E;}
	.st236{fill:#A0A0A0;}
	.st237{fill:#E13732;}
	.st238{fill:#F05055;}
	.st239{fill:#D24605;}
	.st240{fill:#FFCE53;}
	.st241{fill:#FFB833;}
	.st242{fill:#4999D1;}
	.st243{fill:#43AAF0;}
	.st244{fill:#FF2E23;}
	.st245{fill:#FF4A26;}
	.st246{fill:#C6805D;}
	.st247{fill:#77CC7D;}
	.st248{fill:#52BD7E;}
	.st249{fill:#98DB7C;}
	.st250{fill:#D48C64;}
	.st251{fill:#FFD18D;}
	.st252{fill:#FBBD80;}
	.st253{fill:#F3B573;}
	.st254{fill:#434A54;}
	.st255{fill:#DA4453;}
	.st256{fill:#FFCE54;}
	.st257{fill:#ED5564;}
	.st258{fill-rule:evenodd;clip-rule:evenodd;fill:#4BC3EF;}
	.st259{fill-rule:evenodd;clip-rule:evenodd;fill:#1BADDE;}
	.st260{fill-rule:evenodd;clip-rule:evenodd;fill:#DBD8DB;}
	.st261{fill-rule:evenodd;clip-rule:evenodd;fill:#C9BFC8;}
	.st262{fill:#421815;}
	.st263{fill:#FCB982;}
	.st264{fill:#FDDBBF;}
	.st265{fill:#FCCA9F;}
	.st266{fill:#C6865C;}
	.st267{fill:#B16E3D;}
	.st268{fill:#454545;}
	.st269{fill:#EFECEF;}
	.st270{fill:#E2DFE2;}
	.st271{fill:#3F3736;}
	.st272{fill:#C4755B;}
	.st273{fill:#FFE3A1;}
	.st274{fill-rule:evenodd;clip-rule:evenodd;fill:#D48C64;}
	.st275{fill:#DBD8DB;}
	.st276{fill:#BB5D4C;}
	.st277{fill:#465A61;}
	.st278{fill:#596C76;}
	.st279{fill:#E5E1E5;}
	.st280{fill:#7A8C98;}
	.st281{fill:#FEDBA6;}
	.st282{fill:#EAB14D;}
	.st283{fill:#617881;}
	.st284{fill:#E28086;}
	.st285{fill:#DD636E;}
	.st286{fill:#FFE07D;}
	.st287{fill:#ECBE6B;}
	.st288{fill:#E9EDF5;}
	.st289{fill:#CDD2E1;}
	.st290{fill:#FFAA00;}
	.st291{fill:#FF9500;}
	.st292{fill:#555A65;}
	.st293{fill:#333940;}
	.st294{fill:#E6A373;}
	.st295{fill:#CC8552;}
	.st296{fill:#FFDF40;}
	.st297{fill:#FFBE40;}
	.st298{fill:#FF9F40;}
	.st299{fill:#F77E00;}
	.st300{fill:#FFF04A;}
	.st301{fill:#00DDC1;}
	.st302{fill:#A24603;}
	.st303{fill:#F2D813;}
	.st304{fill:#803602;}
	.st305{fill:#3A3A3A;}
	.st306{fill:#AFAFAF;}
	.st307{fill:#686868;}
	.st308{fill:#925A15;}
	.st309{fill:#F3F2F6;}
	.st310{fill:#BF7D5A;}
	.st311{fill:#AA6256;}
	.st312{fill:#894E46;}
	.st313{fill:#DBA660;}
	.st314{fill:#E49542;}
	.st315{fill:#F9EFDA;}
	.st316{fill:#756E78;}
	.st317{fill:#665E66;}
	.st318{fill:#F9F6F9;}
	.st319{fill:#BC6C59;}
	.st320{fill:#994B39;}
	.st321{fill:#FEEC96;}
	.st322{fill:#F5DB64;}
	.st323{fill:#5D5E69;}
	.st324{fill:#FFE09F;}
	.st325{fill:#ECBD83;}
	.st326{fill:#F6D190;}
	.st327{fill:#FF8086;}
	.st328{fill:#E5646E;}
	.st329{fill:#357DA3;}
	.st330{fill:#F48A3B;}
	.st331{fill:#FFC233;}
	.st332{fill:#CDDEE0;}
	.st333{fill:#C8C5C9;}
	.st334{fill:#785353;}
	.st335{fill:#6E4848;}
	.st336{fill:#B7E4F8;}
	.st337{fill:#93D6F4;}
	.st338{fill:#DBF1FB;}
	.st339{fill:#8DCAFC;}
	.st340{fill:#64B9FC;}
	.st341{fill:#C4E1FF;}
	.st342{fill:#B5DBFD;}
	.st343{fill:#FEE7C9;}
	.st344{fill:#FFD496;}
	.st345{fill:#A3E440;}
	.st346{fill:#99D53B;}
	.st347{fill:#BCEA73;}
	.st348{fill:#C76D3D;}
	.st349{fill:#AA5E33;}
	.st350{fill:#D67F4F;}
	.st351{fill:#8DC637;}
	.st352{fill:#A79BA7;}
	.st353{fill:#7A6D79;}
	.st354{fill:#C4E2FF;}
	.st355{fill:#60B7FF;}
	.st356{fill:#B3DAFE;}
	.st357{fill:#F3F0F3;}
	.st358{fill:#EFEDEF;}
	.st359{fill:#CBC4CC;}
	.st360{fill:#26A6FE;}
	.st361{fill:#D2555A;}
	.st362{fill:#FF6464;}
	.st363{fill:#D7DEED;}
	.st364{fill:#B8BFD4;}
	.st365{fill:#959CB3;}
	.st366{fill:#F8C460;}
	.st367{fill:#FAAF42;}
	.st368{fill:#7A838B;}
	.st369{fill:#5D6972;}
	.st370{fill:#A7D0E1;}
	.st371{fill:#80BBCE;}
	.st372{fill:#FFD8CA;}
	.st373{fill:#FFBFAE;}
	.st374{fill:#FFE5D8;}
	.st375{fill:#E5EEF9;}
	.st376{fill:#56595E;}
	.st377{fill:#7F8284;}
	.st378{fill:#A5A5A4;}
	.st379{fill:#95A5A5;}
	.st380{fill:#BDC3C7;}
	.st381{fill:#7F8C8D;}
</style>
<g id="Acoustic_Grand_Keyboard">
	<g id="Page-1_2_">
		<g id="_x30_27---Piano">
			<path id="Shape_28_" class="st31" d="M6.62,20.28l1.66,5.79L0,24.41v-1.66c0-1.37,1.11-2.48,2.48-2.48H6.62z"/>
			<path id="Shape_27_" class="st31" d="M39.72,7.86L48,8.69v32.28c0,0.91-0.74,1.65-1.66,1.66H35.59l-3.31-14.07v-5.79
				c0-1.37,2.76-4.97,4.14-4.97L39.72,7.86z"/>
			<path id="Shape_26_" class="st32" d="M40.55,8.69v11.59h-4.14c-1.37,0-2.48,1.11-2.48,2.48v1.66L6.62,26.07V7.03L40.55,8.69z"/>
			<path id="Shape_25_" class="st32" d="M48,6.21v2.48h-9.93c0.46,0,0.83-0.37,0.83-0.83V6.21c0-0.46-0.37-0.83-0.83-0.83h9.1
				C47.63,5.38,48,5.75,48,6.21z"/>
			<path id="Rectangle-path" class="st33" d="M4.14,5.38h35.59c0.46,0,0.83,0.37,0.83,0.83v1.66c0,0.46-0.37,0.83-0.83,0.83H4.14
				c-0.46,0-0.83-0.37-0.83-0.83V6.21C3.31,5.75,3.68,5.38,4.14,5.38z"/>
			<path id="Shape_24_" class="st32" d="M37.24,28.55v12.41c0,0.91-0.74,1.65-1.66,1.66H4.97c-0.91,0-1.65-0.74-1.66-1.66V27.72
				l30.62,0.83H37.24z"/>
			<path id="Shape_23_" class="st34" d="M33.93,24.41v4.14H0.83C0.37,28.55,0,28.18,0,27.72v-3.31H33.93z"/>
			<path id="Shape_22_" class="st35" d="M41.38,29.38c0,0.46-0.37,0.83-0.83,0.83h-3.31v-1.66h3.31
				C41.01,28.55,41.38,28.92,41.38,29.38z"/>
			<path id="Shape_21_" class="st36" d="M28.97,15.31v9.1h-8.28v-9.93h7.45C28.59,14.48,28.97,14.85,28.97,15.31z"/>
			<path id="Shape_20_" class="st37" d="M20.69,14.48v9.93h-8.28v-9.1c0-0.46,0.37-0.83,0.83-0.83H20.69z"/>
			<path id="Shape_9_" class="st35" d="M44.69,40.14h-2.48c-0.46,0-0.83-0.37-0.83-0.83s0.37-0.83,0.83-0.83h1.66v-1.66
				c0-0.46,0.37-0.83,0.83-0.83s0.83,0.37,0.83,0.83v2.48C45.52,39.77,45.15,40.14,44.69,40.14z"/>
			<g>
				<path id="Shape_10_" class="st38" d="M4.14,24.41v1.66c0,0.46-0.37,0.83-0.83,0.83s-0.83-0.37-0.83-0.83v-1.66H4.14z"/>
				<path id="Shape_11_" class="st38" d="M7.45,24.41v1.66c0,0.46-0.37,0.83-0.83,0.83c-0.46,0-0.83-0.37-0.83-0.83v-1.66H7.45z"/>
				<path id="Shape_12_" class="st38" d="M11.59,24.41v1.66c0,0.46-0.37,0.83-0.83,0.83c-0.46,0-0.83-0.37-0.83-0.83v-1.66H11.59z"
					/>
				<path id="Shape_13_" class="st38" d="M14.9,24.41v1.66c0,0.46-0.37,0.83-0.83,0.83c-0.46,0-0.83-0.37-0.83-0.83v-1.66H14.9z"/>
				<path id="Shape_14_" class="st38" d="M18.21,24.41v1.66c0,0.46-0.37,0.83-0.83,0.83c-0.46,0-0.83-0.37-0.83-0.83v-1.66H18.21z"
					/>
				<path id="Shape_15_" class="st38" d="M30.62,24.41v1.66c0,0.46-0.37,0.83-0.83,0.83c-0.46,0-0.83-0.37-0.83-0.83v-1.66H30.62z"
					/>
				<path id="Shape_16_" class="st38" d="M23.17,24.41v1.66c0,0.46-0.37,0.83-0.83,0.83s-0.83-0.37-0.83-0.83v-1.66H23.17z"/>
				<path id="Shape_17_" class="st38" d="M26.48,24.41v1.66c0,0.46-0.37,0.83-0.83,0.83s-0.83-0.37-0.83-0.83v-1.66H26.48z"/>
			</g>
			<path id="Shape_18_" class="st39" d="M12.41,39.31h2.48c0.91,0,1.66,0.74,1.66,1.66v1.66h-5.79v-1.66
				C10.76,40.05,11.5,39.31,12.41,39.31z"/>
			<path id="Shape_19_" class="st39" d="M22.34,39.31h2.48c0.91,0,1.66,0.74,1.66,1.66v1.66h-5.79v-1.66
				C20.69,40.05,21.43,39.31,22.34,39.31z"/>
		</g>
	</g>
</g>
<g id="Layer_2">
</g>
</svg>

<svg id="Acoustic_Grand_Keyboard" data-name="Acoustic Grand Keyboard" xmlns="http://www.w3.org/2000/svg" viewBox="0 0 48 48"><defs><style>.cls-1{fill:#805333;}.cls-2{fill:#a56a43;}.cls-3{fill:#cb8252;}.cls-4{fill:#ecf0f1;}.cls-5{fill:#603e26;}.cls-6{fill:#f9eab0;}.cls-7{fill:#f5efca;}.cls-8{fill:#464f5d;}.cls-9{fill:#f3d55b;}</style></defs><g id="Page-1"><g id="_027---Piano" data-name="027---Piano"><path id="Shape" class="cls-1" d="M6.62,20.28l1.66,5.79L0,24.41V22.76a2.48,2.48,0,0,1,2.48-2.48Z"/><path id="Shape-2" data-name="Shape" class="cls-1" d="M39.72,7.86,48,8.69V41a1.65,1.65,0,0,1-1.66,1.65H35.59L32.28,28.55V22.76c0-1.38,2.76-5,4.13-5Z"/><path id="Shape-3" data-name="Shape" class="cls-2" d="M40.55,8.69V20.28H36.41a2.48,2.48,0,0,0-2.48,2.48v1.65L6.62,26.07V7Z"/><path id="Shape-4" data-name="Shape" class="cls-2" d="M48,6.21V8.69H38.07a.83.83,0,0,0,.83-.83V6.21a.83.83,0,0,0-.83-.83h9.1A.83.83,0,0,1,48,6.21Z"/><rect id="Rectangle-path" class="cls-3" x="3.31" y="5.38" width="37.24" height="3.31" rx="0.83"/><path id="Shape-5" data-name="Shape" class="cls-2" d="M37.24,28.55V41a1.65,1.65,0,0,1-1.65,1.65H5A1.65,1.65,0,0,1,3.31,41V27.72l30.62.83Z"/><path id="Shape-6" data-name="Shape" class="cls-4" d="M33.93,24.41v4.14H.83A.83.83,0,0,1,0,27.72V24.41Z"/><path id="Shape-7" data-name="Shape" class="cls-5" d="M41.38,29.38a.83.83,0,0,1-.83.83H37.24V28.55h3.31A.83.83,0,0,1,41.38,29.38Z"/><path id="Shape-8" data-name="Shape" class="cls-6" d="M29,15.31v9.1H20.69V14.48h7.45A.83.83,0,0,1,29,15.31Z"/><path id="Shape-9" data-name="Shape" class="cls-7" d="M20.69,14.48v9.93H12.41v-9.1a.83.83,0,0,1,.83-.83Z"/><path id="Shape-10" data-name="Shape" class="cls-5" d="M44.69,40.14H42.21a.83.83,0,0,1,0-1.66h1.65V36.83a.83.83,0,1,1,1.66,0v2.48A.83.83,0,0,1,44.69,40.14Z"/><path id="Shape-11" data-name="Shape" class="cls-8" d="M4.14,24.41v1.66a.83.83,0,0,1-1.66,0V24.41Z"/><path id="Shape-12" data-name="Shape" class="cls-8" d="M7.45,24.41v1.66a.83.83,0,0,1-1.66,0V24.41Z"/><path id="Shape-13" data-name="Shape" class="cls-8" d="M11.59,24.41v1.66a.83.83,0,1,1-1.66,0V24.41Z"/><path id="Shape-14" data-name="Shape" class="cls-8" d="M14.9,24.41v1.66a.83.83,0,1,1-1.66,0V24.41Z"/><path id="Shape-15" data-name="Shape" class="cls-8" d="M18.21,24.41v1.66a.83.83,0,0,1-1.66,0V24.41Z"/><path id="Shape-16" data-name="Shape" class="cls-8" d="M30.62,24.41v1.66a.83.83,0,1,1-1.65,0V24.41Z"/><path id="Shape-17" data-name="Shape" class="cls-8" d="M23.17,24.41v1.66a.83.83,0,1,1-1.65,0V24.41Z"/><path id="Shape-18" data-name="Shape" class="cls-8" d="M26.48,24.41v1.66a.83.83,0,1,1-1.65,0V24.41Z"/><path id="Shape-19" data-name="Shape" class="cls-9" d="M12.41,39.31H14.9A1.65,1.65,0,0,1,16.55,41v1.65H10.76V41A1.65,1.65,0,0,1,12.41,39.31Z"/><path id="Shape-20" data-name="Shape" class="cls-9" d="M22.34,39.31h2.49A1.65,1.65,0,0,1,26.48,41v1.65H20.69V41A1.65,1.65,0,0,1,22.34,39.31Z"/></g></g></svg>
